public/library/opbnb-icon-dark.svg

<svg width="72" height="72" viewBox="0 0 72 72" fill="none" xmlns="http://www.w3.org/2000/svg">
<g clip-path="url(#clip0_254_7265)">
<circle cx="36" cy="36" r="36" fill="black"/>
<path d="M41.103 52.0441V57.3046L36.4794 60L31.9872 57.3046V52.0441L36.4794 54.7396L41.103 52.0441ZM16.3633 33.85L20.8554 36.5455V45.5664L28.5907 50.153V55.4134L16.3633 48.2619V33.85ZM56.5954 33.85V48.2836L44.2365 55.4352V50.1747L51.9718 45.5882V36.5672L56.5954 33.85ZM44.2146 26.6985L48.8383 29.3939V34.6543L41.103 39.2409V48.3923L36.6108 51.0877L32.1406 48.3923V39.2191L24.1205 34.6326V29.3721L28.7441 26.6767L36.4794 31.2633L44.2146 26.6985ZM24.1205 38.4149L28.6126 41.1103V46.3707L24.1205 43.6753V38.4149ZM48.8383 38.4149V43.6753L44.3461 46.3707V41.1103L48.8383 38.4149ZM20.8554 22.1119L25.4791 24.8073L20.8554 27.5027V32.7632L16.3633 30.0677V24.8073L20.8554 22.1119ZM52.1033 22.1119L56.7269 24.8073V30.0677L52.1033 32.7632V27.5027L47.6111 24.8073L52.1033 22.1119ZM36.4794 22.1119L41.103 24.8073L36.4794 27.5027L31.9872 24.8073L36.4794 22.1119ZM36.4794 13.0909L48.8383 20.2425L44.3461 22.9379L36.6108 18.3513L28.7222 22.9379L24.23 20.2425L36.4794 13.0909Z" fill="#F3BA2F"/>
</g>
<defs>
<clipPath id="clip0_254_7265">
<rect width="72" height="72" fill="white"/>
</clipPath>
</defs>
</svg>

<svg xmlns="http://www.w3.org/2000/svg" width="72" height="72" fill="none" viewBox="0 0 72 72"><g clip-path="url(#a)"><circle cx="36" cy="36" r="36" fill="#000"/><path fill="#f3ba2f" d="M41.103 52.044v5.26L36.479 60l-4.492-2.695v-5.26l4.492 2.695zM16.363 33.85l4.492 2.695v9.021l7.736 4.587v5.26l-12.228-7.151zm40.232 0v14.434l-12.358 7.151v-5.26l7.735-4.587v-9.02zm-12.38-7.152 4.623 2.696v5.26l-7.735 4.587v9.151l-4.492 2.696-4.47-2.696V39.22l-8.02-4.586v-5.26l4.623-2.696 7.735 4.586zM24.12 38.416l4.493 2.695v5.26l-4.492-2.695zm24.718 0v5.26l-4.492 2.696v-5.26zM20.855 22.112l4.624 2.695-4.624 2.696v5.26l-4.492-2.695v-5.26zm31.248 0 4.624 2.695v5.26l-4.624 2.696v-5.26l-4.492-2.696zm-15.624 0 4.624 2.695-4.624 2.696-4.492-2.696zm0-9.021 12.36 7.152-4.493 2.695-7.735-4.587-7.889 4.587-4.492-2.695z"/></g><defs><clipPath id="a"><path fill="#fff" d="M0 0h72v72H0z"/></clipPath></defs></svg>
